X:1
T:Title
%%score ( 1 2 ) { 3 | 4 }
L:1/8
Q:1/4=110
M:4/4
K:F
V:1 treble nm="Grand Piano, Staff 1"
V:2 treble 
V:3 treble nm="Choir Pad, Ancyra, CMD"
V:4 bass 
V:1
 [FA]2 [FA]2- [FA][CF] [CF]2 | [CF]2 [B,F]2- [B,F][B,E] [B,E]2 | [DB]2 [EB]2 [B,D]2 [B,E]2- | %3
w: By~Benjamin~Carl~Unseld,~1901 * * * *|||
 [B,E][B,D] [B,D]4 [A,C]2 | [FA]2 [FA]2- [FA][CF] [CF]2 | [CF]2 [B,F]2- [B,F][B,E] [B,E]2 | %6
w: |||
 [DB]2 [EB]2 D2 [B,E]2 | [B,G]2 [A,F]6 | [Fc]2 [Ec]2- [Ec][EG] [EG]2 | %9
w: |||
 [GB]2 [GB]2- [GB][FA] [FA]2 | [Fc]2 [Ec]2 [EG]2 [Fd]2 | z2 c6 | [GB]2 [FA]2- [FA][CF] [CF]2 | %13
w: ||||
 [CF]2 [B,F]2- [B,F][B,E] [B,E]2 | [DB]2 [EB]2 D2 [B,E]2 | [B,G]2 [A,F]6- | [A,F]2 z2 z4 |] %17
w: ||||
V:2
 x8 | x8 | x8 | x8 | x8 | x8 | x8 | x8 | x8 | x8 | x8 | [FG]2 E2 F2 G2 | x8 | x8 | x8 | x8 | x8 |] %17
V:3
 C2 C2- CA, A,2 | A,2 G,2- G,G, G,2 | G,2 G,2 G,2 G,2- | G,E, F,6 | C2 C2- CA, A,2 | %5
 A,2 G,2- G,G, G,2 | G,2 G,2 B,2 G,2 | E,2 F,6 | A,2 G,2- G,[K:treble]C C2 | C2 C2- CC C2 | %10
 A,2 G,2 C2 =B,2 | =B,2 G,6 | C2 C2- CA, A,2 | A,2 G,2- G,G, G,2 | G,2 G,2 B,2 G,2 | E,2 F,6- | %16
 F,2 z2 z4 |] %17
V:4
 F,2 F,2- F,F, F,2 | F,2 C,2- C,C, C,2 | C,2 C,2 C,2 C,2- | C,C, F,,6 | F,2 F,2- F,F, F,2 | %5
 F,2 C,2- C,C, C,2 | C,2 C,2 C,2 C,2 | C,2 F,,6 | F,2 C,2- C,C, C,2 | E,2 F,2- F,F, F,2 | %10
 F,2 z2 G,2 G,,2 | G,,2 C,2 D,2 E,2 | E,2 F,2- F,F, F,2 | F,2 C,2- C,C, C,2 | C,2 C,2 C,2 C,2 | %15
 C,2 F,,6- | F,,2 z2 z4 |] %17

